outputs/icons/image/crop_sharp.svg

<svg xmlns="http://www.w3.org/2000/svg" width="1200" height="1200" fill="none"><g clip-path="url(#a)"><path fill="#000" d="M850 750h100V250H450v100h400zM350 850V50H250v200H50v100h200v600h600v200h100V950h200V850z"/></g><defs><clipPath id="a"><path fill="#fff" d="M0 0h1200v1200H0z"/></clipPath></defs></svg>

<svg width="1200" height="1200" viewBox="0 0 1200 1200" fill="none" xmlns="http://www.w3.org/2000/svg"><g clip-path="url(#clip0_124_544)"><path d="M850 750H950V250H450V350H850V750ZM350 850V50H250V250H50V350H250V950H850V1150H950V950H1150V850H350Z" fill="black"/></g><defs><clipPath id="clip0_124_544"><path width="24" fill="white" d="M0 0H1200V1200H0V0z"/></clipPath></defs></svg>
